packages/ui/public/icons/chevron-left-icon.svg

<svg
  viewBox="0 0 16 22"
  fill="none"
  height="12"
  width="16"
  xmlns="http://www.w3.org/2000/svg"
>
  <path
    fill-rule="evenodd"
    clip-rule="evenodd"
    d="M15.0009 1.17928C14.3648 0.754322 13.3655 0.777295 12.7691 1.23058L0.927031 10.2306C0.357657 10.6633 0.357657 11.3367 0.927031 11.7694L12.7691 20.7694C13.3655 21.2227 14.3648 21.2457 15.0009 20.8207C15.6371 20.3956 15.6694 19.6837 15.0729 19.2306L4.24317 11L15.0729 2.76944C15.6694 2.31616 15.6371 1.60421 15.0009 1.17928Z"
    fill="white"
    fill-opacity="0.8"
  />
</svg>

<svg viewBox="0 0 16 22" fill="none" height="12" width="16" xmlns="http://www.w3.org/2000/svg"><path fill-rule="evenodd" clip-rule="evenodd" d="M15 1.18c-.635-.426-1.634-.403-2.23.05l-11.843 9c-.57.433-.57 1.107 0 1.54l11.842 9c.597.453 1.596.476 2.232.05.636-.424.668-1.136.072-1.59L4.243 11l10.83-8.23c.596-.454.564-1.166-.072-1.59Z" fill="#fff" fill-opacity=".8"/></svg>
